X: 30423
T: TYLER GRIP
C:
%R: jig
B: Elias Howe "The Musician's Companion" Part 3 1844 p.42 #3
S: http://imslp.org/wiki/The_Musician's_Companion_(Howe,_Elias)
S: https://archive.org/stream/firstthirdpartof03howe/#page/66/mode/1up
Z: 2016 John Chambers <jc:trillian.mit.edu>
N: This looks and sounds like two different tunes, but there's only one title.
M: 6/8
L: 1/8
K: A
% - - - - - - - - - - - - - - - - - - - - - - - - -
e |\
a2e ecA | a2e ecA | cBA cde | dBB B2e |\
a2e ecA | a2e ecA | ABA AFE | EAA A2 :|
|: E |\
E<AA c2B | A<FA A<EG | A<BA ABc | dBB B<ed |\
c<BA c2B | A<FA A<EG | A<BA A<Bc | dBG A2 :|
K: G
|: D |\
G2G GAB | (A3 G2)A | B2B Bcd | (c3 B2) c/d/ |\
e2g fdB | c2e dBG | AcA FDF | G3 "^FINE"G2 :|
A |\
d2D D2D | E3 D3 | dBG D2D | EFG D3 |\
G2B A2c | B2G g3 | fed ed^c | d3 Bd"^D.C."B |]
% - - - - - - - - - - - - - - - - - - - - - - - - -


